icons/svg/audio-options_40.svg

<?xml version="1.0" encoding="UTF-8"?>
<svg width="40px" height="40px" viewBox="0 0 40 40" version="1.1" xmlns="http://www.w3.org/2000/svg" xmlns:xlink="http://www.w3.org/1999/xlink">
    <!-- Generator: Sketch 59.1 (86144) - https://sketch.com -->
    <title>audio-options_40</title>
    <desc>Created with Sketch.</desc>
    <g id="New-Icon" stroke="none" stroke-width="1" fill="none" fill-rule="evenodd">
        <g id="audio-options_40" fill="#171B1F">
            <path d="M7.7076,3.6561 C9.5706,3.6561 11.2496,4.7621 11.9856,6.4741 L11.9856,6.4741 L13.5266,10.0561 C14.1906,11.6011 14.1396,13.3501 13.3876,14.8541 L13.3876,14.8541 L12.3486,16.9321 C12.0726,17.4841 12.1406,18.1351 12.5266,18.6311 C14.7496,21.4901 17.9846,24.7021 21.4006,27.4431 C21.8856,27.8331 22.5566,27.9081 23.1066,27.6331 L23.1066,27.6331 L25.1466,26.6131 C26.6516,25.8611 28.3996,25.8101 29.9446,26.4741 L29.9446,26.4741 L33.5266,28.0151 C35.2376,28.7501 36.3436,30.4291 36.3436,32.2921 L36.3436,32.2921 L36.3436,36.3711 C36.3436,37.5001 35.8316,38.5461 34.9406,39.2401 C34.2986,39.7391 33.5296,40.0001 32.7426,40.0001 C32.4476,40.0001 32.1496,39.9631 31.8556,39.8881 C25.6346,38.3081 18.5186,33.8541 12.3326,27.6681 C6.1456,21.4811 1.6906,14.3641 0.1116,8.1431 C-0.1624,7.0661 0.0736,5.9421 0.7606,5.0601 C1.4536,4.1681 2.4996,3.6561 3.6286,3.6561 L3.6286,3.6561 Z M7.7076,4.6561 L3.6286,4.6561 C2.8106,4.6561 2.0526,5.0271 1.5496,5.6741 C1.0536,6.3101 0.8836,7.1211 1.0806,7.8971 C2.6166,13.9491 6.9756,20.8971 13.0396,26.9611 C19.1016,33.0231 26.0506,37.3821 32.1016,38.9191 C32.8786,39.1171 33.6906,38.9461 34.3256,38.4511 C34.9726,37.9481 35.3436,37.1891 35.3436,36.3711 L35.3436,36.3711 L35.3436,32.2921 C35.3436,30.8291 34.4756,29.5111 33.1316,28.9341 L33.1316,28.9341 L29.5496,27.3931 C28.2756,26.8461 26.8336,26.8871 25.5936,27.5071 L25.5936,27.5071 L23.5536,28.5271 C22.6556,28.9751 21.5636,28.8561 20.7746,28.2231 C17.3006,25.4351 14.0066,22.1631 11.7376,19.2461 C11.1216,18.4541 11.0106,17.3701 11.4546,16.4841 L11.4546,16.4841 L12.4926,14.4071 C13.1136,13.1661 13.1556,11.7251 12.6076,10.4521 L12.6076,10.4521 L11.0666,6.8691 C10.4886,5.5241 9.1706,4.6561 7.7076,4.6561 L7.7076,4.6561 Z M39.1464,0.1465 C39.3414,-0.0485 39.6584,-0.0485 39.8534,0.1465 C40.0484,0.3415 40.0484,0.6585 39.8534,0.8535 L39.8534,0.8535 L23.6444,17.0625 L37.0624,17.0625 C37.3384,17.0625 37.5624,17.2865 37.5624,17.5625 C37.5624,17.8385 37.3384,18.0625 37.0624,18.0625 L37.0624,18.0625 L22.4374,18.0625 C22.1614,18.0625 21.9374,17.8385 21.9374,17.5625 L21.9374,17.5625 L21.9374,2.9375 C21.9374,2.6615 22.1614,2.4375 22.4374,2.4375 C22.7134,2.4375 22.9374,2.6615 22.9374,2.9375 L22.9374,2.9375 L22.9374,16.3555 Z" id="fill"></path>
        </g>
    </g>
</svg>

<svg width="40" height="40" xmlns="http://www.w3.org/2000/svg"><path d="M7.708 3.656a4.652 4.652 0 014.278 2.818l1.54 3.582a5.687 5.687 0 01-.138 4.798l-1.04 2.078a1.589 1.589 0 00.179 1.7c2.223 2.858 5.458 6.07 8.874 8.811.485.39 1.156.465 1.706.19l2.04-1.02a5.687 5.687 0 014.798-.139l3.582 1.541a4.65 4.65 0 012.817 4.277v4.08a3.615 3.615 0 01-1.403 2.868 3.571 3.571 0 01-3.085.648c-6.221-1.58-13.337-6.034-19.523-12.22C6.146 21.481 1.69 14.364.112 8.143A3.558 3.558 0 01.76 5.06a3.61 3.61 0 012.868-1.404zm0 1h-4.08c-.817 0-1.575.371-2.078 1.018a2.566 2.566 0 00-.47 2.223c1.537 6.052 5.896 13 11.96 19.064 6.062 6.062 13.01 10.421 19.062 11.958a2.567 2.567 0 002.224-.468 2.619 2.619 0 001.018-2.08v-4.079a3.65 3.65 0 00-2.212-3.358l-3.582-1.54a4.69 4.69 0 00-3.956.113l-2.04 1.02a2.602 2.602 0 01-2.78-.304c-3.473-2.788-6.767-6.06-9.036-8.977a2.614 2.614 0 01-.283-2.762l1.038-2.077a4.682 4.682 0 00.115-3.955L11.067 6.87a3.652 3.652 0 00-3.36-2.213zM39.146.146a.5.5 0 01.707.708L23.644 17.063h13.418a.5.5 0 010 1H22.437a.5.5 0 01-.5-.5V2.938a.5.5 0 011 0v13.417z" fill="#171B1F" fill-rule="evenodd"/></svg>
